libs/ui/packages/crypto-icons/src/svg/EVX.svg

<svg width="24" height="24" viewBox="0 0 24 24" fill="none">
<path fill-rule="evenodd" clip-rule="evenodd" d="M7.56151 12.9075L5.59801 14.8725L4.67551 15.795C4.06591 14.623 3.74841 13.3211 3.75001 12C3.75001 7.45125 7.45126 3.75 12 3.75C16.5488 3.75 20.25 7.45125 20.25 12C20.25 16.5487 16.5488 20.25 12 20.25C10.2405 20.25 8.60851 19.6957 7.26751 18.7537C6.92917 18.5162 6.60903 18.2537 6.30976 17.9685L7.18126 17.0963L13.494 10.7835C13.5187 10.4793 13.6569 10.1955 13.8811 9.98845C14.1054 9.78143 14.3993 9.66632 14.7045 9.666C15.0051 9.66629 15.2949 9.77801 15.518 9.97957C15.741 10.1811 15.8814 10.4582 15.912 10.7573L18.8175 13.6627C18.9502 13.1185 19.0172 12.5602 19.017 12C19.017 8.13 15.8693 4.983 12 4.983C8.13076 4.983 4.98301 8.13 4.98301 12C4.98301 12.5385 5.04376 13.0628 5.15926 13.5668L7.02526 11.7C7.07089 11.4147 7.21665 11.1549 7.43641 10.9673C7.65617 10.7797 7.93556 10.6765 8.22451 10.6762C8.50934 10.6765 8.78503 10.7769 9.00341 10.9597C9.22178 11.1426 9.36897 11.3964 9.41926 11.6768L10.6065 12.8632L9.73426 13.7347L8.89876 12.8993C8.70139 13.0321 8.46917 13.1037 8.23126 13.105C7.99335 13.1064 7.76035 13.0374 7.56151 12.9067V12.9075ZM14.0933 11.928L8.15476 17.8665C9.29612 18.6184 10.6332 19.0185 12 19.017C14.8148 19.017 17.2478 17.3512 18.3645 14.9535L15.3308 11.919C15.1445 12.0321 14.9311 12.0926 14.7132 12.0942C14.4954 12.0958 14.2811 12.0384 14.0933 11.928ZM14.7263 10.341C14.6529 10.3384 14.5798 10.3506 14.5112 10.3769C14.4427 10.4032 14.3802 10.443 14.3274 10.494C14.2746 10.545 14.2326 10.6061 14.204 10.6737C14.1754 10.7413 14.1607 10.814 14.1608 10.8874C14.1609 10.9608 14.1758 11.0334 14.2046 11.101C14.2334 11.1685 14.2755 11.2295 14.3285 11.2803C14.3814 11.3312 14.444 11.3709 14.5126 11.397C14.5812 11.4231 14.6544 11.4351 14.7278 11.4323C14.869 11.4268 15.0026 11.3669 15.1005 11.265C15.1984 11.1631 15.253 11.0272 15.2528 10.8859C15.2526 10.7446 15.1976 10.6089 15.0994 10.5072C15.0012 10.4056 14.8675 10.346 14.7263 10.341ZM8.23126 11.3362C8.08645 11.3362 7.94757 11.3938 7.84518 11.4962C7.74278 11.5986 7.68526 11.7374 7.68526 11.8822C7.68526 12.0271 7.74278 12.1659 7.84518 12.2683C7.94757 12.3707 8.08645 12.4282 8.23126 12.4282C8.37606 12.4282 8.51494 12.3707 8.61734 12.2683C8.71973 12.1659 8.77726 12.0271 8.77726 11.8822C8.77726 11.7374 8.71973 11.5986 8.61734 11.4962C8.51494 11.3938 8.37606 11.3362 8.23126 11.3362Z" fill="white"/>
<path fill-rule="evenodd" clip-rule="evenodd" d="M7.56151 12.9075L5.59801 14.8725L4.67551 15.795C4.06591 14.623 3.74841 13.3211 3.75001 12C3.75001 7.45125 7.45126 3.75 12 3.75C16.5488 3.75 20.25 7.45125 20.25 12C20.25 16.5487 16.5488 20.25 12 20.25C10.2405 20.25 8.60851 19.6957 7.26751 18.7537C6.92917 18.5162 6.60903 18.2537 6.30976 17.9685L7.18126 17.0963L13.494 10.7835C13.5187 10.4793 13.6569 10.1955 13.8811 9.98845C14.1054 9.78143 14.3993 9.66632 14.7045 9.666C15.0051 9.66629 15.2949 9.77801 15.518 9.97957C15.741 10.1811 15.8814 10.4582 15.912 10.7573L18.8175 13.6627C18.9502 13.1185 19.0172 12.5602 19.017 12C19.017 8.13 15.8693 4.983 12 4.983C8.13076 4.983 4.98301 8.13 4.98301 12C4.98301 12.5385 5.04376 13.0628 5.15926 13.5668L7.02526 11.7C7.07089 11.4147 7.21665 11.1549 7.43641 10.9673C7.65617 10.7797 7.93556 10.6765 8.22451 10.6762C8.50934 10.6765 8.78503 10.7769 9.00341 10.9597C9.22178 11.1426 9.36897 11.3964 9.41926 11.6768L10.6065 12.8632L9.73426 13.7347L8.89876 12.8993C8.70139 13.0321 8.46917 13.1037 8.23126 13.105C7.99335 13.1064 7.76035 13.0374 7.56151 12.9067V12.9075ZM14.0933 11.928L8.15476 17.8665C9.29612 18.6184 10.6332 19.0185 12 19.017C14.8148 19.017 17.2478 17.3512 18.3645 14.9535L15.3308 11.919C15.1445 12.0321 14.9311 12.0926 14.7132 12.0942C14.4954 12.0958 14.2811 12.0384 14.0933 11.928ZM14.7263 10.341C14.6529 10.3384 14.5798 10.3506 14.5112 10.3769C14.4427 10.4032 14.3802 10.443 14.3274 10.494C14.2746 10.545 14.2326 10.6061 14.204 10.6737C14.1754 10.7413 14.1607 10.814 14.1608 10.8874C14.1609 10.9608 14.1758 11.0334 14.2046 11.101C14.2334 11.1685 14.2755 11.2295 14.3285 11.2803C14.3814 11.3312 14.444 11.3709 14.5126 11.397C14.5812 11.4231 14.6544 11.4351 14.7278 11.4323C14.869 11.4268 15.0026 11.3669 15.1005 11.265C15.1984 11.1631 15.253 11.0272 15.2528 10.8859C15.2526 10.7446 15.1976 10.6089 15.0994 10.5072C15.0012 10.4056 14.8675 10.346 14.7263 10.341ZM8.23126 11.3362C8.08645 11.3362 7.94757 11.3938 7.84518 11.4962C7.74278 11.5986 7.68526 11.7374 7.68526 11.8822C7.68526 12.0271 7.74278 12.1659 7.84518 12.2683C7.94757 12.3707 8.08645 12.4282 8.23126 12.4282C8.37606 12.4282 8.51494 12.3707 8.61734 12.2683C8.71973 12.1659 8.77726 12.0271 8.77726 11.8822C8.77726 11.7374 8.71973 11.5986 8.61734 11.4962C8.51494 11.3938 8.37606 11.3362 8.23126 11.3362Z" fill="#044AAC"/>
</svg>

<svg width="24" height="24" viewBox="0 0 24 24" fill="none"><path fill="#fff" fill-rule="evenodd" d="m7.562 12.908-1.964 1.965-.922.922A8.2 8.2 0 0 1 3.75 12c0-4.549 3.701-8.25 8.25-8.25s8.25 3.701 8.25 8.25-3.701 8.25-8.25 8.25a8.2 8.2 0 0 1-4.732-1.496 8 8 0 0 1-.958-.786l.871-.872 6.313-6.312a1.216 1.216 0 0 1 2.024-.804c.223.201.363.478.394.777l2.905 2.906A7.024 7.024 0 0 0 12 4.983a7.024 7.024 0 0 0-6.84 8.584L7.024 11.7a1.216 1.216 0 0 1 1.978-.74c.219.183.366.436.416.717l1.188 1.186-.873.872-.835-.836a1.21 1.21 0 0 1-1.337.008m6.531-.98-5.938 5.938A7 7 0 0 0 12 19.018a7.03 7.03 0 0 0 6.365-4.063l-3.034-3.035a1.21 1.21 0 0 1-1.238.009m.633-1.587a.547.547 0 1 0-.038 1.093.547.547 0 0 0 .038-1.093m-6.495.995a.546.546 0 1 0 0 1.092.546.546 0 0 0 0-1.092" clip-rule="evenodd"/><path fill="#044aac" fill-rule="evenodd" d="m7.562 12.908-1.964 1.965-.922.922A8.2 8.2 0 0 1 3.75 12c0-4.549 3.701-8.25 8.25-8.25s8.25 3.701 8.25 8.25-3.701 8.25-8.25 8.25a8.2 8.2 0 0 1-4.732-1.496 8 8 0 0 1-.958-.786l.871-.872 6.313-6.312a1.216 1.216 0 0 1 2.024-.804c.223.201.363.478.394.777l2.905 2.906A7.024 7.024 0 0 0 12 4.983a7.024 7.024 0 0 0-6.84 8.584L7.024 11.7a1.216 1.216 0 0 1 1.978-.74c.219.183.366.436.416.717l1.188 1.186-.873.872-.835-.836a1.21 1.21 0 0 1-1.337.008m6.531-.98-5.938 5.938A7 7 0 0 0 12 19.018a7.03 7.03 0 0 0 6.365-4.063l-3.034-3.035a1.21 1.21 0 0 1-1.238.009m.633-1.587a.547.547 0 1 0-.038 1.093.547.547 0 0 0 .038-1.093m-6.495.995a.546.546 0 1 0 0 1.092.546.546 0 0 0 0-1.092" clip-rule="evenodd"/></svg>
